contributed-vectors/lapa.svg

<svg xmlns="http://www.w3.org/2000/svg" xml:space="preserve" viewBox="0 0 192 192"><font horiz-adv-x="1000"><font-face font-family="CynthoPro-Regular" underline-position="-100" underline-thickness="50"/><glyph d="M116 397c42 32 99 45 156 45 76 0 130-50 130-124v-29c-36 7-73 10-113 10-140 0-236-65-236-161C53 54 122-4 221-4c84 0 149 46 181 116V0h77v320c0 109-86 185-211 185-78 0-142-24-191-68m325-201c0-98-63-178-154-178-68 0-118 34-118 86 0 63 67 106 164 106 40 0 72-3 108-14z" horiz-adv-x="557" unicode="a"/><glyph d="M248 73c-9-10-23-15-40-15-29 0-50 23-50 56v611H80V119C80 45 130-5 201-5c37 0 67 13 88 36z" horiz-adv-x="326" unicode="l"/><glyph d="M80-225h77V33C198 8 247-3 302-3 449-3 550 99 550 250c0 150-83 253-203 253-89 0-157-53-190-134v131H80m77-245c0 102 65 185 158 185s158-75 158-190c0-113-73-191-178-191-57 0-101 13-138 35z" horiz-adv-x="604" unicode="p"/></font><path fill="#68E0D4" d="M192 45.7c.1 8.5-2.2 16.5-5.1 24.4-4.2 11.4-6.3 23-4.4 35 1 6.5 3 12.9 5.1 19.2 2.9 8.8 5.2 17.7 4.4 27.1-1.1 11.8-6.7 21.3-15.4 29.1-12.9 11.5-27.8 13.6-44 9.1-6.8-1.9-13.3-4.4-20.1-6.1-12.4-3.2-24.8-2.5-37.1 1.3-7.2 2.2-14.3 4.6-21.7 6.1-16.2 3.2-29.9-2-41-13.9-10.2-10.9-14.3-23.8-11.2-38.3 1.6-7.9 4.3-15.5 6.6-23.2 3.8-13.3 3.7-26.6-.5-39.8-1.9-5.9-3.9-11.8-5.5-17.8C-5 30.2 12.8 8.6 33.9 2.3 40.2.4 46.7.1 53 1.6c8.3 2 16.5 4.7 24.8 6.9C91 12.2 104 12 117 8c5.9-1.8 11.8-3.9 17.8-5.5 24.2-6.2 43.9 6.2 53.2 25 2.9 5.7 4.3 11.8 4 18.2zm-29.3-3.2c6.5 0 11.4-5 11.4-11.6S168.9 19 162.6 19c-6.6.1-12.2 5.5-12.2 11.9-.1 6.5 5.5 11.6 12.3 11.6z"/><ellipse cx="96.3" cy="96.3" fill="#8ABFFF" rx="78" ry="77.8"/><text fill="#FFF" font-family="'CynthoPro-Regular'" font-size="63.358" transform="matrix(1.0002 0 0 1 31.525 114.911)">lapa</text></svg>

<?xml version="1.0" encoding="utf-8"?>
<!-- Generator: Adobe Illustrator 17.1.0, SVG Export Plug-In . SVG Version: 6.00 Build 0)  -->
<!DOCTYPE svg PUBLIC "-//W3C//DTD SVG 1.1//EN" "http://www.w3.org/Graphics/SVG/1.1/DTD/svg11.dtd">
<svg version="1.1" id="Слой_1" xmlns="http://www.w3.org/2000/svg" xmlns:xlink="http://www.w3.org/1999/xlink" x="0px" y="0px"
	 viewBox="0 0 192 192" enable-background="new 0 0 192 192" xml:space="preserve">
<font horiz-adv-x="1000">
<!-- Copyright (c) 2012 by Andriy Konstantynov. All rights reserved. -->
<!-- Copyright: Copyright 2017 Adobe System Incorporated. All rights reserved. -->
<font-face font-family="CynthoPro-Regular" units-per-em="1000" underline-position="-100" underline-thickness="50"/>
<missing-glyph horiz-adv-x="236"/>
<glyph unicode="a" horiz-adv-x="557" d="M116,397C158,429 215,442 272,442C348,442 402,392 402,318l0,-29C366,296 329,299 289,299C149,299 53,234 53,138C53,54 122,-4 221,-4C305,-4 370,42 402,112l0,-112l77,0l0,320C479,429 393,505 268,505C190,505 126,481 77,437M402,236C402,138 339,58 248,58C180,58 130,92 130,144C130,207 197,250 294,250C334,250 366,247 402,236z"/>
<glyph unicode="l" horiz-adv-x="326" d="M248,73C239,63 225,58 208,58C179,58 158,81 158,114l0,611l-78,0l0,-606C80,45 130,-5 201,-5C238,-5 268,8 289,31z"/>
<glyph unicode="p" horiz-adv-x="604" d="M80,-225l77,0l0,258C198,8 247,-3 302,-3C449,-3 550,99 550,250C550,400 467,503 347,503C258,503 190,450 157,369l0,131l-77,0M157,255C157,357 222,440 315,440C408,440 473,365 473,250C473,137 400,59 295,59C238,59 194,72 157,94z"/>
</font>

	<path fill="#68E0D4" d="M192,45.7c0.1,8.5-2.2,16.5-5.1,24.4c-4.2,11.4-6.3,23-4.4,35c1,6.5,3,12.9,5.1,19.2
	c2.9,8.8,5.2,17.7,4.4,27.1c-1.1,11.8-6.7,21.3-15.4,29.1c-12.9,11.5-27.8,13.6-44,9.1c-6.8-1.9-13.3-4.4-20.1-6.1
	c-12.4-3.2-24.8-2.5-37.1,1.3c-7.2,2.2-14.3,4.6-21.7,6.1c-16.2,3.2-29.9-2-41-13.9C2.5,166.1-1.6,153.2,1.5,138.7
	c1.6-7.9,4.3-15.5,6.6-23.2c3.8-13.3,3.7-26.6-0.5-39.8c-1.9-5.9-3.9-11.8-5.5-17.8C-5,30.2,12.8,8.6,33.9,2.3
	c6.3-1.9,12.8-2.2,19.1-0.7c8.3,2,16.5,4.7,24.8,6.9C91,12.2,104,12,117,8c5.9-1.8,11.8-3.9,17.8-5.5c24.2-6.2,43.9,6.2,53.2,25
	C190.9,33.2,192.3,39.3,192,45.7z M162.7,42.5c6.5,0,11.4-5,11.4-11.6c0-6.6-5.2-11.9-11.5-11.9c-6.6,0.1-12.2,5.5-12.2,11.9
	C150.3,37.4,155.9,42.5,162.7,42.5z"/>
<ellipse fill="#8ABFFF" cx="96.3" cy="96.3" rx="78" ry="77.8"/>
<text transform="matrix(1.0002 0 0 1 31.5254 114.9111)" fill="#FFFFFF" font-family="'CynthoPro-Regular'" font-size="63.3582">lapa</text>
</svg>
